X:3
T:Tideswell Processional
M:4/4
L:1/8
Q:1/2=80
S:Muckram Wakes/Tideswell Band recording
N:The repeats vary according to the use of the tune.
Z:John Adams
S:John Adams 2009-2-21
K:D
d2A2A2Bc| d2A2A2Bc| d2A2A2G2| F4 D4:|
G2B2B2 AG|F2A2A2Bc|d2A2A2G2|F4D4:|
d3ed2 cB|AB cde2 dc|d2A2B2AG|F4D4|
G2B2B2 AG|F2A2A2Bc|d2A2A2G2|F4D4|]
